assets/Woman merpeople/Medium-Light/Flat/woman_merpeople_flat_medium-light.svg

<svg width="32" height="32" viewBox="0 0 32 32" fill="none" xmlns="http://www.w3.org/2000/svg">
<path d="M19.81 16.2L19.52 16.59C19.23 16.49 18.92 16.44 18.59 16.44L15.56 16.2C14.44 16.39 13.26 17.72 13.26 19.3C13.26 20.88 14.78 21.81 15.55 22.21C15.55 22.21 17.81 23.28 17.97 24.98C18.08 26.21 17.49 28.56 13.47 28C12.81 27.91 12.23 27.58 12 26.99C11.96 26.88 12.01 26.77 12.12 26.72L12.88 26.41C13.73 26.07 14.3 25.24 14.3 24.32V23.71C14.3 23.51 14.1 23.37 13.91 23.45L12.22 24.12C11.74 24.31 11.36 24.67 11.13 25.12C11.08 25.21 10.99 25.27 10.9 25.27C10.81 25.27 10.71 25.21 10.67 25.12C10.44 24.68 10.06 24.32 9.58 24.12L7.89 23.45C7.7 23.38 7.5 23.51 7.5 23.71V24.32C7.5 25.24 8.06 26.07 8.92 26.41L9.77 26.75C9.86 26.79 9.93 26.87 9.95 26.97C10.2 28.69 11.68 30 13.46 30H13.69H16.59C19.12 30 21.47 28.6 22.61 26.34C23.06 25.45 23.35 24.38 23.35 23.1C23.35 17.97 19.81 16.2 19.81 16.2Z" fill="#00D26A"/>
<path d="M22.1496 8.15385C22.2797 7.88455 22.3497 7.58534 22.3497 7.26618C22.3497 6.84728 22.2196 6.4583 22.0095 6.13914C21.7893 5.81 21.6793 5.43099 21.6793 5.04202V5.03204C21.6793 3.905 20.7586 2.98741 19.6279 2.98741C19.5178 2.98741 19.4077 2.93754 19.3477 2.84777C18.9774 2.33911 18.367 2 17.6766 2C16.9861 2 16.3857 2.33911 16.0054 2.85775C15.9454 2.94751 15.8353 2.99738 15.7252 2.99738C15.6339 2.99738 15.544 3.00337 15.4557 3.01496C15.3824 3.00993 15.3084 3.00737 15.2337 3.00737C13.4763 3.00737 12.0516 4.42734 12.0516 6.17897H12.0416V7.41988C11.8962 7.68282 11.6295 7.8774 11.322 7.93442C9.5208 8.24361 8.14987 9.75963 8.01978 11.5749C8.01978 11.5998 8.01728 11.6247 8.01478 11.6497C8.01228 11.6746 8.00977 11.6995 8.00977 11.7245C7.82965 14.6967 10.1612 17.2599 13.1533 17.25C14.6365 17.25 15.9743 16.6179 16.9121 15.6089C17.2239 15.6713 17.5465 15.704 17.8767 15.704C20.5681 15.704 22.75 13.5294 22.75 10.8468C22.75 10.0595 22.5621 9.31601 22.2285 8.65836C22.203 8.58482 22.1733 8.51295 22.1396 8.44309C22.0996 8.35332 22.0996 8.24361 22.1496 8.15385Z" fill="#FFF9BA"/>
<path d="M25.0804 9.52C24.9929 9.48 24.9054 9.44 24.8154 9.4C24.6554 9.33 24.4754 9.28 24.3054 9.27V8.65C24.3054 8.25 24.4554 7.88 24.7354 7.6L25.2054 7.15C25.4054 6.95 25.7354 6.95 25.9354 7.15C26.1354 7.35 26.1354 7.68 25.9354 7.88L25.4754 8.34C25.3954 8.42 25.3454 8.53 25.3454 8.65V9.64C25.2554 9.6 25.1679 9.56 25.0804 9.52Z" fill="#E4B29A"/>
<path d="M7.14541 16.7401C7.21541 16.9001 7.37541 17.0001 7.54541 17.0001C7.60541 17.0001 7.66541 16.9901 7.72541 16.9701C7.94541 16.8701 8.04541 16.6101 7.94541 16.3901C7.77541 16.0101 8.08541 15.7001 8.14541 15.6501L8.20541 15.6101L7.47541 15.0701C7.19541 15.2901 6.77541 15.9101 7.14541 16.7401Z" fill="#E4B29A"/>
<path d="M25.9015 7.83004C25.6422 7.87004 25.4626 8.10004 25.4626 8.36004V8.62004C25.4626 8.81004 25.313 8.96004 25.1235 8.96004H25.0936C24.9539 8.96004 24.8242 8.90004 24.7345 8.79004C24.6746 8.71004 24.6347 8.61004 24.6347 8.51004V7.64004C24.6347 7.36004 24.4253 7.12004 24.1559 7.10004C23.8567 7.08004 23.6073 7.32004 23.6073 7.62004V8.56004C23.6073 8.86004 23.7071 9.15004 23.8966 9.39004L24.2158 9.77004C24.2756 9.84004 24.3155 9.91004 24.3056 10.02L23.9165 12.15L21.0338 10.78C20.8116 10.6752 20.5818 10.5864 20.347 10.5145L18.8593 10.6679H16.7646H14.846C14.2248 10.9218 13.6544 11.2982 13.1737 11.78L10.7698 14.19C10.68 14.28 10.5703 14.33 10.4506 14.35L7.73747 14.65C7.65768 14.65 7.58785 14.66 7.50805 14.68H7.49808C7.01929 14.77 6.59038 15.05 6.33103 15.48L6.10161 15.85C5.92207 16.05 5.99189 16.35 6.22131 16.5C6.30111 16.55 6.39088 16.57 6.48065 16.57C6.64025 16.57 6.79985 16.49 6.88962 16.34L7.11904 15.97C7.28861 15.72 7.53798 15.64 7.70755 15.61C7.78735 15.6 7.86715 15.63 7.91702 15.69C7.97687 15.78 7.96689 15.89 7.89707 15.96L7.5679 16.3C7.37838 16.49 7.36841 16.82 7.55793 17.01C7.6477 17.1 7.7674 17.14 7.89707 17.14C8.01677 17.14 8.14644 17.09 8.23621 17L8.32598 16.91C8.40578 16.83 8.52548 16.78 8.6352 16.78H10.69C11.3783 16.78 12.0266 16.51 12.5154 16.02L14.1636 14.376C14.1792 14.7571 14.1968 15.1658 14.2143 15.3999V16.9999C14.2143 17.4415 14.5001 17.9999 15.0001 17.9999H20.0001C20.5001 17.9999 21.0001 17.4999 20.9443 17.1099C20.7543 16.4299 20.7443 15.8199 20.7743 15.3999C20.7951 15.1564 20.6788 14.6469 20.5648 14.1472C20.5304 13.9964 20.4962 13.8466 20.466 13.7052L20.954 13.92L23.9664 15.19C24.6247 15.57 25.4826 15.47 26.0312 14.9C26.3404 14.58 26.5 14.14 26.5 13.69V8.34004C26.49 8.03004 26.2207 7.79004 25.9015 7.83004Z" fill="#EEBFAA"/>
<path d="M20.6885 13H18.9037C18.3422 13 17.861 13.31 17.6203 13.77C17.5702 13.86 17.4298 13.86 17.3797 13.77C17.129 13.31 16.6477 13 16.0963 13H14.3015C13.9906 13 13.75 13.25 13.75 13.55V14.32C13.75 15.15 14.4218 15.83 15.264 15.83H19.736C20.5682 15.83 21.25 15.16 21.25 14.32V13.55C21.25 13.25 20.9993 13 20.6885 13Z" fill="#8B62BF"/>
<path d="M15.5 7C15.5 7.55228 15.0523 8 14.5 8C13.9477 8 13.5 7.55228 13.5 7C13.5 6.44771 13.9477 6 14.5 6C15.0523 6 15.5 6.44771 15.5 7Z" fill="#E4B29A"/>
<path d="M21.5 7C21.5 7.55228 21.0523 8 20.5 8C19.9477 8 19.5 7.55228 19.5 7C19.5 6.44771 19.9477 6 20.5 6C21.0523 6 21.5 6.44771 21.5 7Z" fill="#E4B29A"/>
<path d="M20.3856 10.5265C19.6598 11.2977 18.6283 11.7377 17.5095 11.7377C16.4785 11.7377 15.511 11.364 14.7913 10.6906C15.4101 10.4292 16.0809 10.29 16.7646 10.29H18.8593C19.3757 10.29 19.8921 10.371 20.3856 10.5265Z" fill="#E4B29A"/>
<path d="M20.3371 8.54622C20.3562 8.4501 20.3754 8.35398 20.3946 8.24824C20.4042 8.15212 20.4137 8.04639 20.4233 7.94065L20.5 6.14318C20.4904 5.34537 19.9441 5.29731 19.8291 5.29731H17.9313C17.1837 5.29731 16.484 4.92243 16.0527 4.30725C15.9856 4.20152 15.8227 4.22075 15.7748 4.33609L15.7268 4.45144C15.6022 4.77825 15.353 5.02817 15.0367 5.17235C15.0176 5.18196 14.9984 5.19157 14.9792 5.20119C14.8355 5.26847 14.5096 5.48955 14.5 6.05667V6.12395V6.2393L14.5671 7.95027C14.6054 8.45971 14.7396 8.93071 14.9696 9.33442C15.0176 9.41131 15.0655 9.48821 15.123 9.56511C15.1709 9.63239 15.2284 9.70929 15.2955 9.77658C15.8323 10.3821 16.6278 10.7378 17.5096 10.7378C18.7843 10.7378 19.8674 9.99766 20.27 8.81536C20.2891 8.72885 20.3179 8.63273 20.3371 8.54622Z" fill="#EEBFAA"/>
<path d="M20.0125 6.09751C20.0664 6.00461 20.0347 5.88556 19.9418 5.83168L19.9406 5.83103L19.9387 5.8299L19.9325 5.82646C19.9274 5.82367 19.9205 5.81989 19.9117 5.81531C19.8941 5.80615 19.8693 5.79374 19.8381 5.77947C19.7757 5.751 19.687 5.71479 19.5788 5.68242C19.3642 5.61815 19.0633 5.56614 18.7375 5.62902C18.632 5.64937 18.563 5.75135 18.5834 5.85679C18.6037 5.96224 18.7057 6.03122 18.8112 6.01087C19.0553 5.96375 19.2895 6.00174 19.4673 6.05498C19.5554 6.08136 19.6273 6.11077 19.6765 6.13324C19.7011 6.14444 19.7197 6.15382 19.7318 6.16009L19.7446 6.16697L19.7472 6.16843C19.8401 6.22192 19.9587 6.19025 20.0125 6.09751Z" fill="#A56953"/>
<path d="M15.3469 5.83174C15.254 5.88562 15.2224 6.00461 15.2763 6.09751C15.3301 6.19037 15.4491 6.22201 15.5419 6.16821L15.5442 6.16697L15.557 6.16009C15.5691 6.15382 15.5877 6.14444 15.6123 6.13324C15.6615 6.11077 15.7334 6.08136 15.8215 6.05498C15.9993 6.00174 16.2335 5.96375 16.4776 6.01087C16.5831 6.03122 16.6851 5.96224 16.7054 5.85679C16.7258 5.75135 16.6568 5.64937 16.5513 5.62902C16.2255 5.56614 15.9246 5.61815 15.71 5.68242C15.6018 5.71479 15.5131 5.751 15.4508 5.77947C15.4195 5.79374 15.3947 5.80615 15.3771 5.81531C15.3683 5.81989 15.3614 5.82366 15.3563 5.82646L15.3501 5.8299L15.3482 5.83103L15.3469 5.83174Z" fill="#A56953"/>
<path d="M21.2311 3.66564L21.4262 4.25306C21.457 4.34918 21.5495 4.42395 21.6522 4.42395L22.2581 4.43463C22.4943 4.43463 22.5868 4.74436 22.4019 4.89388L21.9295 5.28906C21.8473 5.35314 21.8165 5.45995 21.8473 5.56675L22.0219 6.16485C22.0938 6.39982 21.837 6.59207 21.6419 6.45322L21.1489 6.09009C21.0668 6.02601 20.9538 6.02601 20.8716 6.09009L20.3684 6.45322C20.1732 6.59207 19.9267 6.39982 19.9884 6.16485L20.163 5.56675C20.1938 5.45995 20.163 5.35314 20.0808 5.28906L19.5981 4.91524C19.4132 4.76572 19.5057 4.45599 19.7419 4.45599L20.3478 4.44531C20.4505 4.44531 20.543 4.37054 20.5738 4.27442L20.7689 3.687C20.8408 3.44135 21.1592 3.44135 21.2311 3.66564Z" fill="#50E2FF"/>
<path d="M15.9142 6.47998C16.2642 6.47998 16.5442 6.71998 16.7242 6.98998C16.5915 7.03008 16.4627 7.06733 16.3356 7.10407C16.1396 7.16073 15.9478 7.21619 15.7526 7.27906C15.7092 7.29302 15.6793 7.28555 15.6494 7.27809C15.6183 7.27031 15.5872 7.26254 15.5409 7.27906L15.1842 7.09998C15.0642 6.98998 15.0742 6.79998 15.2042 6.69998C15.4042 6.55998 15.6642 6.47998 15.9142 6.47998Z" fill="black"/>
<path d="M18.9102 6.47998C18.5602 6.47998 18.2802 6.71998 18.1002 6.98998C18.2328 7.03008 18.3617 7.06733 18.4887 7.10407C18.6847 7.16073 18.8766 7.21619 19.0718 7.27906C19.1151 7.29302 19.145 7.28555 19.1749 7.27809C19.2061 7.27031 19.2372 7.26254 19.2834 7.27906L19.6402 7.09998C19.7602 6.98998 19.7502 6.79998 19.6202 6.69998C19.4202 6.55998 19.1602 6.47998 18.9102 6.47998Z" fill="black"/>
<path d="M15.2564 7.11C15.3364 6.76 15.6564 6.5 16.0364 6.5C16.4364 6.5 16.7564 6.78 16.8364 7.15C16.8564 7.23 16.7864 7.31 16.7064 7.31H15.4164C15.3064 7.31 15.2264 7.21 15.2564 7.11Z" fill="white"/>
<path d="M19.5864 7.11C19.5064 6.76 19.1864 6.5 18.8064 6.5C18.4164 6.5 18.0864 6.78 18.0064 7.15C17.9864 7.23 18.0564 7.31 18.1364 7.31H19.4264C19.5364 7.31 19.6164 7.21 19.5864 7.11Z" fill="white"/>
<path d="M15.6365 7.1699C15.6365 6.8799 15.8665 6.6499 16.1565 6.6499C16.4465 6.6499 16.6765 6.8799 16.6765 7.1699C16.6765 7.21261 16.6692 7.24802 16.6608 7.28859C16.6594 7.29552 16.6579 7.30261 16.6565 7.3099H15.6565C15.655 7.30261 15.6536 7.29553 15.6521 7.2886C15.6438 7.24802 15.6365 7.21261 15.6365 7.1699Z" fill="#7D4533"/>
<path d="M19.2065 7.1699C19.2065 6.8799 18.9765 6.6499 18.6865 6.6499C18.4065 6.6499 18.1765 6.8799 18.1765 7.1699C18.1765 7.2199 18.1765 7.2599 18.1865 7.3099H19.1865C19.188 7.30261 19.1894 7.29553 19.1909 7.2886C19.1992 7.24802 19.2065 7.21261 19.2065 7.1699Z" fill="#7D4533"/>
<path d="M16.1564 6.86987C16.3264 6.86987 16.4564 7.00987 16.4564 7.16987C16.4564 7.21987 16.4464 7.26987 16.4064 7.30987H15.8864C15.8664 7.26987 15.8564 7.21987 15.8564 7.16987C15.8564 6.99987 15.9964 6.86987 16.1564 6.86987Z" fill="black"/>
<path d="M18.6965 6.86987C18.5265 6.86987 18.3965 7.00987 18.3965 7.16987C18.3965 7.21987 18.4065 7.26987 18.4465 7.30987H18.9665C18.9865 7.26987 18.9965 7.21987 18.9965 7.16987C18.9965 6.99987 18.8565 6.86987 18.6965 6.86987Z" fill="black"/>
<path d="M16.0765 6.96988C16.0765 7.01959 16.0362 7.05988 15.9865 7.05988C15.9368 7.05988 15.8965 7.01959 15.8965 6.96988C15.8965 6.92018 15.9368 6.87988 15.9865 6.87988C16.0362 6.87988 16.0765 6.92018 16.0765 6.96988Z" fill="white"/>
<path d="M18.6165 6.96988C18.6165 7.01959 18.5762 7.05988 18.5265 7.05988C18.4768 7.05988 18.4365 7.01959 18.4365 6.96988C18.4365 6.92018 18.4768 6.87988 18.5265 6.87988C18.5762 6.87988 18.6165 6.92018 18.6165 6.96988Z" fill="white"/>
<path d="M17.2982 7.21129L17.0127 8.15917C16.9556 8.35461 17.0984 8.55005 17.2887 8.55005H17.7074C17.9073 8.55005 18.05 8.35461 17.9834 8.15917L17.6979 7.21129C17.6503 6.9963 17.3648 6.9963 17.2982 7.21129Z" fill="#D19479"/>
<path d="M17.5 9.00987C17.1819 9.00987 16.8945 8.93987 16.6379 8.80987C16.5558 8.76987 16.4635 8.85987 16.5148 8.93987C16.72 9.24987 17.0895 9.45987 17.5 9.45987C17.9105 9.45987 18.2697 9.24987 18.4852 8.93987C18.5365 8.85987 18.4442 8.76987 18.3621 8.80987C18.1055 8.93987 17.8181 9.00987 17.5 9.00987Z" fill="#990838"/>
</svg>

<svg xmlns="http://www.w3.org/2000/svg" width="32" height="32" fill="none"><path fill="#00D26A" d="m19.81 16.2-.29.39c-.29-.1-.6-.15-.93-.15l-3.03-.24c-1.12.19-2.3 1.52-2.3 3.1s1.52 2.51 2.29 2.91c0 0 2.26 1.07 2.42 2.77.11 1.23-.48 3.58-4.5 3.02-.66-.09-1.24-.42-1.47-1.01-.04-.11.01-.22.12-.27l.76-.31c.85-.34 1.42-1.17 1.42-2.09v-.61c0-.2-.2-.34-.39-.26l-1.69.67c-.48.19-.86.55-1.09 1-.05.09-.14.15-.23.15s-.19-.06-.23-.15c-.23-.44-.61-.8-1.09-1l-1.69-.67c-.19-.07-.39.06-.39.26v.61c0 .92.56 1.75 1.42 2.09l.85.34c.09.04.16.12.18.22A3.545 3.545 0 0 0 13.46 30h3.13c2.53 0 4.88-1.4 6.02-3.66.45-.89.74-1.96.74-3.24 0-5.13-3.54-6.9-3.54-6.9Z"/><path fill="#FFF9BA" d="M22.15 8.154a2.051 2.051 0 0 0-.14-2.015c-.22-.329-.33-.708-.33-1.097v-.01a2.05 2.05 0 0 0-2.052-2.045c-.11 0-.22-.05-.28-.14a2.063 2.063 0 0 0-3.342.01c-.06.09-.17.14-.28.14a2.07 2.07 0 0 0-.27.018 3.177 3.177 0 0 0-3.404 3.164h-.01v1.24a1.045 1.045 0 0 1-.72.515 4.001 4.001 0 0 0-3.302 3.64c0 .026-.003.05-.005.076-.003.025-.005.05-.005.075-.18 2.972 2.151 5.535 5.143 5.525a5.119 5.119 0 0 0 3.76-1.641c.31.062.634.095.964.095 2.691 0 4.873-2.175 4.873-4.857 0-.787-.188-1.531-.521-2.189a2.014 2.014 0 0 0-.09-.215c-.04-.09-.04-.2.01-.29Z"/><path fill="#E4B29A" d="m25.08 9.52-.265-.12c-.16-.07-.34-.12-.51-.13v-.62c0-.4.15-.77.43-1.05l.47-.45c.2-.2.53-.2.73 0 .2.2.2.53 0 .73l-.46.46c-.08.08-.13.19-.13.31v.99l-.265-.12ZM7.145 16.74c.07.16.23.26.4.26.06 0 .12-.01.18-.03.22-.1.32-.36.22-.58-.17-.38.14-.69.2-.74l.06-.04-.73-.54c-.28.22-.7.84-.33 1.67Z"/><path fill="#EEBFAA" d="M25.901 7.83a.528.528 0 0 0-.438.53v.26c0 .19-.15.34-.34.34h-.03a.458.458 0 0 1-.458-.45v-.87c0-.28-.21-.52-.48-.54a.517.517 0 0 0-.548.52v.94c0 .3.1.59.29.83l.319.38c.06.07.1.14.09.25l-.39 2.13-2.882-1.37a5.137 5.137 0 0 0-.687-.265l-1.488.153h-4.013a5.075 5.075 0 0 0-1.672 1.112l-2.404 2.41c-.09.09-.2.14-.32.16l-2.713.3c-.08 0-.15.01-.229.03h-.01c-.479.09-.908.37-1.167.8l-.23.37c-.179.2-.11.5.12.65.08.05.17.07.26.07.16 0 .319-.08.409-.23l.229-.37c.17-.25.419-.33.589-.36.08-.01.16.02.209.08.06.09.05.2-.02.27l-.33.34c-.189.19-.199.52-.01.71.09.09.21.13.34.13.12 0 .25-.05.34-.14l.089-.09c.08-.08.2-.13.31-.13h2.054c.688 0 1.337-.27 1.825-.76l1.649-1.644c.015.381.033.79.05 1.024V17c0 .442.286 1 .786 1h5c.5 0 1-.5.944-.89-.19-.68-.2-1.29-.17-1.71.021-.244-.095-.753-.21-1.253-.034-.15-.068-.3-.098-.442l.488.215 3.012 1.27c.659.38 1.517.28 2.065-.29.31-.32.469-.76.469-1.21V8.34a.529.529 0 0 0-.599-.51Z"/><path fill="#8B62BF" d="M20.689 13h-1.785c-.562 0-1.043.31-1.284.77-.05.09-.19.09-.24 0-.251-.46-.732-.77-1.284-.77h-1.794a.55.55 0 0 0-.552.55v.77c0 .83.672 1.51 1.514 1.51h4.472a1.51 1.51 0 0 0 1.514-1.51v-.77c0-.3-.25-.55-.561-.55Z"/><path fill="#E4B29A" d="M15.5 7a1 1 0 1 1-2 0 1 1 0 0 1 2 0ZM21.5 7a1 1 0 1 1-2 0 1 1 0 0 1 2 0ZM20.386 10.527c-.726.77-1.758 1.21-2.877 1.21-1.03 0-1.998-.373-2.718-1.046.62-.262 1.29-.401 1.974-.401h2.094c.517 0 1.033.081 1.527.237Z"/><path fill="#EEBFAA" d="M20.337 8.546c.02-.096.038-.192.058-.298.01-.096.019-.202.028-.307l.077-1.798c-.01-.798-.556-.846-.67-.846H17.93a2.303 2.303 0 0 1-1.878-.99c-.067-.105-.23-.086-.278.03l-.048.114a1.304 1.304 0 0 1-.69.721l-.058.03c-.143.066-.47.288-.479.855v.182l.067 1.711c.038.51.173.98.403 1.384.048.077.095.154.153.231.048.067.105.144.173.212.536.605 1.332.96 2.214.96 1.274 0 2.357-.74 2.76-1.922.02-.086.048-.182.067-.269Z"/><path fill="#A56953" d="M20.012 6.098a.195.195 0 0 0-.07-.266l-.001-.001-.002-.001-.006-.004-.021-.01a2.033 2.033 0 0 0-.333-.133 1.78 1.78 0 0 0-.841-.054.194.194 0 1 0 .073.382c.244-.047.479-.01.656.044a1.643 1.643 0 0 1 .265.105l.013.007.002.001a.194.194 0 0 0 .265-.07ZM15.347 5.832a.194.194 0 0 0 .195.336l.002-.001.013-.007c.012-.006.03-.016.055-.027.05-.022.121-.052.21-.078.177-.053.412-.091.656-.044a.194.194 0 1 0 .073-.382 1.78 1.78 0 0 0-.841.053 2.025 2.025 0 0 0-.354.144l-.006.004-.002.001h-.001Z"/><path fill="#50E2FF" d="m21.231 3.666.195.587c.031.096.123.17.226.17l.606.012c.236 0 .329.31.144.459l-.473.395a.255.255 0 0 0-.082.278l.175.598c.072.235-.185.427-.38.288l-.493-.363a.224.224 0 0 0-.277 0l-.504.363c-.195.14-.441-.053-.38-.288l.175-.598a.255.255 0 0 0-.082-.278l-.483-.374c-.185-.15-.092-.459.144-.459l.606-.01a.245.245 0 0 0 .226-.172l.195-.587c.072-.246.39-.246.462-.021Z"/><path fill="#000" d="M15.914 6.48c.35 0 .63.24.81.51l-.388.114c-.196.057-.388.112-.583.175-.044.014-.074.007-.104 0a.165.165 0 0 0-.108 0l-.357-.179a.26.26 0 0 1 .02-.4c.2-.14.46-.22.71-.22ZM18.91 6.48c-.35 0-.63.24-.81.51l.389.114c.196.057.388.112.583.175.043.014.073.007.103 0 .031-.009.062-.016.108 0l.357-.179a.26.26 0 0 0-.02-.4c-.2-.14-.46-.22-.71-.22Z"/><path fill="#fff" d="M15.256 7.11c.08-.35.4-.61.78-.61.4 0 .72.28.8.65.02.08-.05.16-.13.16h-1.29c-.11 0-.19-.1-.16-.2ZM19.586 7.11a.796.796 0 0 0-.78-.61c-.39 0-.72.28-.8.65-.02.08.05.16.13.16h1.29c.11 0 .19-.1.16-.2Z"/><path fill="#7D4533" d="M15.636 7.17c0-.29.23-.52.52-.52a.516.516 0 0 1 .505.639l-.005.02h-1l-.004-.02c-.008-.041-.015-.076-.015-.12ZM19.206 7.17a.514.514 0 1 0-1.03 0c0 .05 0 .09.01.14h1l.005-.021c.008-.041.015-.076.015-.12Z"/><path fill="#000" d="M16.156 6.87c.17 0 .3.14.3.3 0 .05-.01.1-.05.14h-.52a.32.32 0 0 1-.03-.14c0-.17.14-.3.3-.3ZM18.697 6.87a.3.3 0 0 0-.3.3c0 .05.01.1.05.14h.52a.32.32 0 0 0 .03-.14.3.3 0 0 0-.3-.3Z"/><path fill="#fff" d="M16.076 6.97a.09.09 0 1 1-.18 0 .09.09 0 0 1 .18 0ZM18.616 6.97a.09.09 0 1 1-.18 0 .09.09 0 0 1 .18 0Z"/><path fill="#D19479" d="m17.298 7.211-.285.948c-.057.196.085.391.276.391h.418c.2 0 .343-.195.276-.39l-.285-.949c-.048-.215-.333-.215-.4 0Z"/><path fill="#990838" d="M17.5 9.01c-.318 0-.605-.07-.862-.2-.082-.04-.175.05-.123.13.205.31.575.52.985.52.41 0 .77-.21.985-.52.052-.08-.04-.17-.123-.13-.256.13-.544.2-.862.2Z"/></svg>
